!!!OTL: ALS DIE PREUSSEN MARSCHIERTEN
!!!ARE: Europa, Mitteleuropa, Deutschland
!!!SCT: E0328
!!!YEM: Copyright 1995, estate of Helmut Schaffrath.
**kern
*ICvox
*Ivox
*M4/4
*k[b-]
*F:
{8.f
16a
=1
4cc
8.a
16f
4b-
8.g
16e
=2
2f
8r}
{8f
8e
8f
=3
4g
4a
4b-
4a
=4
2g
4r}
{8.f
16a
=5
4cc
8.a
16g
8.f
16f
8.e-
16e-
=6
4d
4f
4b-
8r}
{8b-
=7
8.dd
16dd
8.b-
16a
4g
4f
=8
4e
4g
4cc
8r}
{8c
=9
4.f
8a
4.g
8b-
=10
8.a
16f
8ff
8dd
4.cc}
{8cc
=11
8ff
8cc
8dd
8b-
4cc
4e
=12
2f
4.r}
{8c
=13
4.f
8a
4.g
8b-
=14
8.a
16f
8ff
8dd
4.cc}
{8cc
=15
8ff
8cc
8dd
8b-
4cc
4e
=16
2f
4r}
==
!!!AGN: historisches Lied, Krieg, Prager Schlacht (1757)
!!!ONB: ESAC (Essen Associative Code) Database: ERK1
!!!AMT: simple quadruple
!!!AIN: vox
!!!EED: Helmut Schaffrath
!!!EEV: 1.0
*-
